src/pos-icons/car-defrost-front.svg

<svg height="24" viewBox="0 0 24 24" width="24" xmlns="http://www.w3.org/2000/svg"><path d="m15 23c-.3 0-.5-.1-.7-.3-.4-.4-.3-1 .1-1.4.5-.4 1.7-1.8 1.7-2.9 0-.6-.4-1.2-.8-1.9-.5-.8-1.2-1.8-1.2-3 0-2.3 1.3-3.2 1.5-3.3.5-.3 1.1-.1 1.4.3.3.5.1 1.1-.3 1.4s-.5.4-.5 1.6c0 .6.4 1.2.8 1.9.5.8 1.2 1.8 1.2 3 0 2.2-2.1 4.2-2.3 4.4-.4.1-.7.2-.9.2m-3.3-.3c.2-.2 2.3-2.2 2.3-4.4 0-1.2-.6-2.2-1.2-3-.4-.7-.8-1.3-.8-1.9 0-1.2.5-1.6.5-1.6.5-.3.6-.9.3-1.4s-.9-.6-1.4-.3c-.2.1-1.5 1-1.5 3.3 0 1.2.6 2.2 1.2 3 .4.7.8 1.3.8 1.9 0 1.1-1.2 2.5-1.7 2.9-.4.4-.4 1-.1 1.4.2.2.5.3.7.3.4.1.7 0 .9-.2m-4 0c.2-.2 2.3-2.2 2.3-4.4 0-1.2-.6-2.2-1.2-3-.4-.6-.8-1.2-.8-1.9 0-1.2.5-1.6.5-1.6.5-.3.6-.9.3-1.4-.2-.4-.9-.5-1.3-.3-.2.1-1.5 1-1.5 3.3 0 1.2.6 2.2 1.2 3 .4.7.8 1.3.8 1.9 0 1.1-1.2 2.5-1.7 2.9-.4.4-.4 1-.1 1.4.3.3.5.4.8.4.2 0 .5-.1.7-.3m4.3-19.7c-2.6 0-11 .3-11 4 0 2.4 1.2 8.4 1.8 11h1.2.8.2v-2h-.6c-.6-2.9-1.4-7.2-1.4-9 0-1 4.4-2 9-2s9 1 9 2c0 1.8-.8 6.1-1.4 9h-.6v2h.2.8 1.2c.6-2.6 1.8-8.6 1.8-11 0-3.7-8.4-4-11-4z"/></svg>

<?xml version="1.0" encoding="UTF-8"?><!DOCTYPE svg PUBLIC "-//W3C//DTD SVG 1.1//EN" "http://www.w3.org/Graphics/SVG/1.1/DTD/svg11.dtd"><svg xmlns="http://www.w3.org/2000/svg" xmlns:xlink="http://www.w3.org/1999/xlink" version="1.1" id="mdi-car-defrost-front" width="24" height="24" viewBox="0 0 24 24"><path d="M15,23C14.7,23 14.5,22.9 14.3,22.7C13.9,22.3 14,21.7 14.4,21.3V21.3C14.9,20.9 16.1,19.5 16.1,18.4C16.1,17.8 15.7,17.2 15.3,16.5C14.8,15.7 14.1,14.7 14.1,13.5C14.1,11.2 15.4,10.3 15.6,10.2C16.1,9.9 16.7,10.1 17,10.5C17.3,11 17.1,11.6 16.7,11.9V11.9C16.7,11.9 16.2,12.3 16.2,13.5C16.2,14.1 16.6,14.7 17,15.4C17.5,16.2 18.2,17.2 18.2,18.4C18.2,20.6 16.1,22.6 15.9,22.8C15.5,22.9 15.2,23 15,23M11.7,22.7C11.9,22.5 14,20.5 14,18.3C14,17.1 13.4,16.1 12.8,15.3C12.4,14.6 12,14 12,13.4C12,12.2 12.5,11.8 12.5,11.8V11.8C13,11.5 13.1,10.9 12.8,10.4C12.5,9.9 11.9,9.8 11.4,10.1C11.2,10.2 9.9,11.1 9.9,13.4C9.9,14.6 10.5,15.6 11.1,16.4C11.5,17.1 11.9,17.7 11.9,18.3C11.9,19.4 10.7,20.8 10.2,21.2V21.2C9.8,21.6 9.8,22.2 10.1,22.6C10.3,22.8 10.6,22.9 10.8,22.9C11.2,23 11.5,22.9 11.7,22.7M7.7,22.7C7.9,22.5 10,20.5 10,18.3C10,17.1 9.4,16.1 8.8,15.3C8.4,14.7 8,14.1 8,13.4C8,12.2 8.5,11.8 8.5,11.8V11.8C9,11.5 9.1,10.9 8.8,10.4C8.6,10 7.9,9.9 7.5,10.1C7.3,10.2 6,11.1 6,13.4C6,14.6 6.6,15.6 7.2,16.4C7.6,17.1 8,17.7 8,18.3C8,19.4 6.8,20.8 6.3,21.2V21.2C5.9,21.6 5.9,22.2 6.2,22.6C6.5,22.9 6.7,23 7,23C7.2,23 7.5,22.9 7.7,22.7M12,3C9.4,3 1,3.3 1,7C1,9.4 2.2,15.4 2.8,18H4L4.8,18H5V16H4.4C3.8,13.1 3,8.8 3,7C3,6 7.4,5 12,5C16.6,5 21,6 21,7C21,8.8 20.2,13.1 19.6,16H19V18H19.2L20,18H21.2C21.8,15.4 23,9.4 23,7C23,3.3 14.6,3 12,3Z" /></svg>
